extensions/MultimediaViewer/resources/mmv/ui/img/pd.svg

<?xml version="1.0" encoding="UTF-8" standalone="no"?>
<!-- Created with Inkscape (http://www.inkscape.org/) -->

<svg
   xmlns:dc="http://purl.org/dc/elements/1.1/"
   xmlns:cc="http://creativecommons.org/ns#"
   xmlns:rdf="http://www.w3.org/1999/02/22-rdf-syntax-ns#"
   xmlns:svg="http://www.w3.org/2000/svg"
   xmlns="http://www.w3.org/2000/svg"
   version="1.0"
   width="64"
   height="64"
   viewBox="5.5 -3.5 64 64"
   id="svg2">
  <metadata
     id="metadata12">
    <rdf:RDF>
      <cc:Work
         rdf:about="">
        <dc:format>image/svg+xml</dc:format>
        <dc:type
           rdf:resource="http://purl.org/dc/dcmitype/StillImage" />
        <dc:title></dc:title>
      </cc:Work>
    </rdf:RDF>
  </metadata>
  <defs
     id="defs10" />
  <path
     d="M 54.414286,39.014286 C 55.328572,37.185714 55.785715,34.9 55.785715,33.071428 h -7.771429 l 6.4,5.942858 z"
     id="path5"
     style="fill:#959595;fill-opacity:1" />
  <path
     d="M 53.5,17.071428 C 48.471429,7.9285711 35.671429,5.1857139 26.985714,11.585714 l 5.485715,5.485714 c 5.942857,-4.571428 14.171428,0 14.628571,6.857143 h 8.228572 c 0,-2.742857 -0.914286,-5.942857 -1.828572,-6.857143 -0.914285,-1.828571 0.914286,1.828572 0,0 z"
     id="path7"
     style="fill:#959595;fill-opacity:1" />
  <path
     d="m 37.5,-3.5000004 c -17.828571,0 -32,14.1714284 -32,32.0000004 0,17.828571 14.171429,32 32,32 17.828572,0 32,-14.171429 32,-32 0,-17.828572 -14.171428,-32.0000004 -32,-32.0000004 z M 10.071429,28.5 c 0,-5.485715 1.828571,-10.514286 4.571428,-14.628572 l 6.4,6.4 C 18.3,28.042857 19.214286,37.642857 25.157143,44.042857 c 5.485714,5.485714 15.085714,6.857143 22.4,3.2 l 4.571429,5.028572 C 48.014286,55.014286 42.985715,56.385714 37.957143,56.385714 22.414286,55.928571 10.071429,43.585714 10.071429,28.5 z M 27.9,27.585714 41.614286,41.757143 C 37.5,43.128571 32.928572,41.757143 30.185714,38.1 28.357143,34.9 27.9,30.785714 27.9,27.585714 z M 57.157143,47.7 18.757143,8.8428568 C 23.328572,3.8142854 30.185714,1.0714282 37.5,1.0714282 c 15.085715,0 27.428572,12.3428568 27.428572,27.4285718 0,7.314286 -3.2,14.171428 -7.771429,19.2 z"
     id="path9"
     style="fill:#959595;fill-opacity:1" />
</svg>

<?xml version="1.0" encoding="UTF-8"?>
<svg xmlns="http://www.w3.org/2000/svg" width="64" height="64" viewBox="5.5 -3.5 64 64">
    <path fill="#72777d" d="M54.414 39.014c.915-1.828 1.372-4.114 1.372-5.943h-7.772l6.4 5.943zM53.5 17.071C48.471 7.93 35.671 5.186 26.986 11.586l5.485 5.485c5.943-4.571 14.172 0 14.629 6.858h8.229c0-2.743-.915-5.943-1.829-6.858-.914-1.828.914 1.829 0 0z"/>
    <path fill="#72777d" d="M37.5-3.5c-17.829 0-32 14.171-32 32s14.171 32 32 32 32-14.171 32-32-14.171-32-32-32zm-27.429 32c0-5.486 1.829-10.514 4.572-14.629l6.4 6.4c-2.743 7.772-1.829 17.372 4.114 23.772 5.486 5.486 15.086 6.857 22.4 3.2l4.572 5.028c-4.115 2.743-9.143 4.115-14.172 4.115-15.543-.457-27.886-12.8-27.886-27.886zm17.829-.914l13.714 14.171c-4.114 1.372-8.685 0-11.428-3.657-1.829-3.2-2.286-7.314-2.286-10.514zM57.157 47.7l-38.4-38.857C23.33 3.814 30.186 1.07 37.5 1.07c15.086 0 27.429 12.343 27.429 27.429 0 7.314-3.2 14.171-7.772 19.2z"/>
</svg>
